X: 4013
T: Sutherland
R: Strathspey.
%R: strathspey
B: James Kerr "Merry Melodies" v.4 p.04 #13
Z: 2016 John Chambers <jc:trillian.mit.edu>
M: C
L: 1/8
K: A
|:\
(vef/g/) a>f (e<c)a2 | (ef/g/) a>c e2a2 |\
(ef/g/) a>f (e<c)a2 | d<B =g>B d2f2 ::\
e>Ac>A e>Ac2 | e>Ac>A (ef/g/)a2 |\
e>Ac>A e>Ac>A | d<B =g>B d2f2 :|

%%sep 1 1 500
%%sep 1 1 500

